www/assets/icons/emoji_objects.svg

<svg width="24" height="24" viewBox="0 0 24 24" xmlns="http://www.w3.org/2000/svg" fill='currentColor'><path d="M12.0017 2.5C11.5417 2.5 11.0717 2.54 10.6017 2.64C7.84166 3.17 5.64166 5.4 5.12166 8.16C4.64166 10.77 5.60166 13.17 7.34166 14.72C7.77166 15.1 8.00166 15.63 8.00166 16.19V18.5C8.00166 19.6 8.90166 20.5 10.0017 20.5H10.2817C10.6317 21.1 11.2617 21.5 12.0017 21.5C12.7417 21.5 13.3817 21.1 13.7217 20.5H14.0017C15.1017 20.5 16.0017 19.6 16.0017 18.5V16.19C16.0017 15.64 16.2217 15.1 16.6417 14.73C18.0917 13.45 19.0017 11.58 19.0017 9.5C19.0017 5.63 15.8717 2.5 12.0017 2.5ZM14.0017 18.5H10.0017V17.5H14.0017V18.5ZM14.0017 16.5H10.0017V15.5H14.0017V16.5ZM12.5017 10.91V13.5H11.5017V10.91L9.67166 9.09L10.3817 8.38L12.0017 10L13.6217 8.38L14.3317 9.09L12.5017 10.91Z"/></svg>

<svg xmlns="http://www.w3.org/2000/svg" width="24" height="24" viewBox="0 0 24 24" fill='currentColor'><path d="M12.002 2.5c-.46 0-.93.04-1.4.14-2.76.53-4.96 2.76-5.48 5.52-.48 2.61.48 5.01 2.22 6.56.43.38.66.91.66 1.47v2.31c0 1.1.9 2 2 2h.28a1.98 1.98 0 0 0 3.44 0h.28c1.1 0 2-.9 2-2v-2.31c0-.55.22-1.09.64-1.46a6.96 6.96 0 0 0 2.36-5.23c0-3.87-3.13-7-7-7m2 16h-4v-1h4zm0-2h-4v-1h4zm-1.5-5.59v2.59h-1v-2.59l-1.83-1.82.71-.71 1.62 1.62 1.62-1.62.71.71z"/></svg>
